X:1
T:Aegean Shore
C:Heifer Zephyr (original, MIT license)
M:4/4
L:1/8
Q:1/4=92
K:Edor
|: E2 ^F2 G2 A2 | B4 A2 G2 | ^F2 G2 A2 B2 | E6 z2 |
   G2 A2 B2 c2 | d4 c2 B2 | A2 G2 ^F2 G2 | E8 :|
|: d2 c2 B2 A2 | G4 ^F2 E2 | ^F2 G2 A2 G2 | ^F6 z2 |
   A2 B2 c2 d2 | e4 d2 c2 | B2 A2 G2 A2 | E8 :|
